svgs/sharp-regular/square-6.svg

<svg xmlns="http://www.w3.org/2000/svg" viewBox="0 0 448 512"><!--! Font Awesome Pro 6.6.0 by @fontawesome - https://fontawesome.com License - https://fontawesome.com/license (Commercial License) Copyright 2024 Fonticons, Inc. --><path d="M400 80l0 352L48 432 48 80l352 0zM48 32L0 32 0 80 0 432l0 48 48 0 352 0 48 0 0-48 0-352 0-48-48 0L48 32zM224 240a48 48 0 1 1 0 96 48 48 0 1 1 0-96zm-96 48c0 53 43 96 96 96s96-43 96-96c0-49.2-37-89.8-84.7-95.3l44.4-48.4L294.6 128l-65.1 0-68.1 74.3c-21.4 23.4-33.3 54-33.3 85.7z"/></svg>

<svg xmlns="http://www.w3.org/2000/svg" viewBox="0 0 448 512"><!--! Font Awesome Pro 6.5.2 by @fontawesome - https://fontawesome.com License - https://fontawesome.com/license (Commercial License) Copyright 2024 Fonticons, Inc. --><path d="M400 80V432H48V80H400zM48 32H0V80 432v48H48 400h48V432 80 32H400 48zM224 240a48 48 0 1 1 0 96 48 48 0 1 1 0-96zm-96 48c0 53 43 96 96 96s96-43 96-96c0-49.2-37-89.8-84.7-95.3l44.4-48.4L294.6 128H229.4l-68.1 74.3c-21.4 23.4-33.3 54-33.3 85.7z"/></svg>
